src/assets/icons/settings.svg

<svg width="16" height="16" viewBox="0 0 16 16" fill="none" xmlns="http://www.w3.org/2000/svg">
<g clip-path="url(#clip0_8874_15282)">
<path fill-rule="evenodd" clip-rule="evenodd" d="M7.32414 0.00344205C6.8604 0.0673319 6.47759 0.259138 6.15209 0.590702C5.88063 0.867204 5.83974 0.946904 5.44365 1.97178L5.36316 2.18006L4.81839 2.48936C4.51877 2.65947 4.2589 2.79867 4.2409 2.79867C4.2229 2.79867 3.98146 2.76349 3.70437 2.72049C2.99363 2.6102 2.72871 2.61386 2.35254 2.73914C1.98039 2.86307 1.62941 3.11913 1.40829 3.42797C1.29666 3.58389 0.789786 4.47036 0.722884 4.62666C0.491707 5.16682 0.541772 5.84208 0.851862 6.36588C0.890771 6.4316 1.08289 6.68462 1.27878 6.92817L1.63497 7.37097L1.6338 8.64184L1.31617 9.04393C0.946362 9.51207 0.893542 9.58663 0.800565 9.77165C0.667327 10.0368 0.607133 10.308 0.607133 10.643C0.607133 10.8967 0.650953 11.1362 0.735905 11.3469C0.792814 11.4881 1.25318 12.3127 1.38295 12.5059C1.62094 12.8603 1.98474 13.1332 2.39906 13.2681C2.77015 13.3889 3.01633 13.3912 3.72087 13.2807C3.99763 13.2373 4.24016 13.2019 4.25984 13.2021C4.27952 13.2023 4.53431 13.3398 4.82604 13.5076L5.35646 13.8128L5.44377 14.0334C5.49178 14.1547 5.59008 14.4049 5.66222 14.5894C5.82661 15.0098 5.93088 15.1844 6.15209 15.4097C6.44009 15.703 6.74453 15.8727 7.15304 15.9675C7.27471 15.9957 7.36878 15.9993 8 15.9993C8.75634 15.9993 8.81828 15.9942 9.07723 15.9103C9.56316 15.7529 10.0008 15.3734 10.2202 14.919C10.256 14.845 10.3694 14.5668 10.4722 14.3007L10.6592 13.817L11.1945 13.5094C11.4889 13.3402 11.7437 13.2017 11.7608 13.2017C11.7779 13.2017 12.0185 13.2369 12.2956 13.2799C12.8622 13.3678 13.13 13.3805 13.381 13.3313C13.8624 13.2369 14.2868 12.9764 14.5688 12.6022C14.6786 12.4564 15.2027 11.5476 15.2771 11.3737C15.5083 10.8338 15.4582 10.1583 15.1481 9.63453C15.1092 9.5688 14.9171 9.31578 14.7212 9.07223L14.365 8.62943L14.3663 7.35856L14.6573 6.99069C15.021 6.53082 15.1131 6.40143 15.1993 6.22928C15.4336 5.76157 15.4593 5.13751 15.2641 4.65349C15.2072 4.51233 14.7468 3.6877 14.6171 3.49449C14.3791 3.14007 14.0153 2.86721 13.6009 2.73233C13.2305 2.61174 12.9855 2.60943 12.2755 2.71984C11.9968 2.7632 11.7542 2.79851 11.7365 2.79831C11.7189 2.79812 11.4657 2.66064 11.174 2.4928L10.6435 2.18764L10.553 1.95845C10.5032 1.8324 10.404 1.58082 10.3326 1.39939C10.1813 1.01485 10.0699 0.822974 9.87981 0.619174C9.61672 0.337179 9.28531 0.143883 8.88974 0.0417178C8.75331 0.00647056 8.7019 0.00390402 8.05989 0.000259529C7.68346 -0.00187926 7.35237 -0.000441993 7.32414 0.00344205ZM7.48058 1.72072C7.42145 1.73903 7.3713 1.78238 7.34059 1.84177C7.32803 1.86605 7.20937 2.16586 7.0769 2.50801C6.94443 2.85015 6.81573 3.16476 6.7909 3.20712C6.72899 3.31276 6.63383 3.41269 6.52545 3.48585C6.40542 3.56689 4.90711 4.41576 4.77344 4.47847C4.71294 4.50684 4.61283 4.53506 4.5339 4.54597C4.40487 4.56382 4.36527 4.55966 3.71799 4.46021C3.34384 4.40274 3.00812 4.35571 2.97195 4.35571C2.84648 4.35571 2.81094 4.39788 2.54645 4.86094C2.33187 5.2366 2.30239 5.29752 2.30239 5.36521C2.30239 5.41035 2.31553 5.46344 2.33414 5.49354C2.35161 5.52177 2.55533 5.77925 2.78685 6.06571C3.01839 6.35217 3.23026 6.62936 3.25772 6.68168C3.3539 6.86502 3.35455 6.87397 3.35455 8.00876C3.35455 9.03775 3.35402 9.05418 3.31677 9.17226C3.26565 9.33427 3.24032 9.37118 2.76467 9.97695C2.5368 10.2672 2.34338 10.523 2.33486 10.5454C2.29395 10.6529 2.3015 10.6723 2.56315 11.1314C2.84785 11.6309 2.85953 11.6447 2.99767 11.6447C3.03286 11.6447 3.37325 11.5971 3.75409 11.539C4.41146 11.4387 4.45252 11.4344 4.56519 11.4537C4.63045 11.4649 4.72355 11.491 4.77206 11.5117C4.87272 11.5547 6.3871 12.4207 6.52545 12.5144C6.63383 12.5877 6.72906 12.6878 6.79068 12.7929C6.81538 12.8351 6.94671 13.1563 7.08251 13.5067C7.2183 13.8571 7.3418 14.1627 7.35696 14.1858C7.42242 14.2858 7.43392 14.2878 7.96816 14.2935C8.50077 14.2991 8.56454 14.2917 8.63724 14.2158C8.66819 14.1834 8.7591 13.9709 8.9245 13.5439C9.05759 13.2004 9.18978 12.8755 9.21829 12.8218C9.28338 12.6992 9.3679 12.5998 9.46235 12.5348C9.57252 12.459 11.1069 11.5781 11.2266 11.5219C11.2871 11.4935 11.3871 11.4653 11.4661 11.4544C11.5951 11.4366 11.6347 11.4407 12.282 11.5402C12.6562 11.5977 12.9919 11.6447 13.0281 11.6447C13.1535 11.6447 13.1891 11.6025 13.4536 11.1395C13.6681 10.7638 13.6976 10.7029 13.6976 10.6352C13.6976 10.59 13.6845 10.537 13.6659 10.5069C13.6484 10.4786 13.4447 10.2212 13.2132 9.93469C12.9816 9.64823 12.7697 9.37104 12.7423 9.31872C12.6462 9.1355 12.6454 9.1257 12.6454 8.0002C12.6454 6.87523 12.6462 6.86444 12.7419 6.68271C12.7692 6.63095 12.9846 6.34261 13.2207 6.04196C13.4567 5.7413 13.6568 5.47708 13.6652 5.4548C13.706 5.34749 13.6984 5.32793 13.4369 4.86901C13.152 4.36933 13.1405 4.35571 13.002 4.35571C12.9666 4.35571 12.6293 4.40291 12.2525 4.46059C11.6053 4.55969 11.5606 4.56443 11.4425 4.54623C11.3738 4.53565 11.2776 4.50989 11.2287 4.48901C11.1275 4.44579 9.61347 3.58011 9.47455 3.48604C9.36617 3.41265 9.27094 3.31263 9.20932 3.2075C9.18462 3.16534 9.05329 2.84415 8.91749 2.49373C8.7817 2.14331 8.6582 1.83768 8.64304 1.81457C8.57727 1.71418 8.56717 1.71245 8.02647 1.70888C7.75311 1.70706 7.50746 1.7124 7.48058 1.72072Z" fill="currentColor"/>
<path d="M10.1388 7.99927C10.1388 9.18049 9.18122 10.1381 8 10.1381C6.81878 10.1381 5.86121 9.18049 5.86121 7.99927C5.86121 6.81805 6.81878 5.86048 8 5.86048C9.18122 5.86048 10.1388 6.81805 10.1388 7.99927Z" fill="currentColor"/>
</g>
<defs>
<clipPath id="clip0_8874_15282">
<rect width="16" height="16" fill="white" transform="translate(0 -0.000732422)"/>
</clipPath>
</defs>
</svg>

<svg xmlns="http://www.w3.org/2000/svg" width="16" height="16" fill="none">
  <g fill="currentColor" clip-path="url(#a)">
    <path fill-rule="evenodd" d="M7.324.003a1.958 1.958 0 0 0-1.172.588c-.271.276-.312.356-.708 1.38l-.08.21-.546.308c-.3.17-.56.31-.577.31-.018 0-.26-.036-.537-.079-.71-.11-.975-.106-1.351.02a1.95 1.95 0 0 0-.945.688 16.294 16.294 0 0 0-.685 1.199c-.231.54-.181 1.215.129 1.739.039.066.23.319.427.562l.356.443-.001 1.27-.318.403c-.37.468-.422.543-.515.728a1.854 1.854 0 0 0-.194.871c0 .254.044.493.129.704.057.141.517.966.647 1.159.238.354.602.627 1.016.762.371.12.617.123 1.322.013.277-.044.52-.08.539-.079.02 0 .274.138.566.306l.53.305.088.22a181 181 0 0 1 .218.556c.165.42.269.595.49.82a1.93 1.93 0 0 0 1.001.558c.122.029.216.032.847.032.756 0 .818-.005 1.077-.089a1.987 1.987 0 0 0 1.143-.991c.036-.074.15-.352.252-.618l.187-.484.535-.308c.295-.169.55-.307.567-.307.017 0 .258.035.535.078.566.088.834.1 1.085.051a1.953 1.953 0 0 0 1.188-.729c.11-.146.634-1.054.708-1.228.231-.54.181-1.216-.129-1.74a8.887 8.887 0 0 0-.427-.562l-.356-.443.001-1.27.291-.368c.364-.46.456-.59.542-.762a2.01 2.01 0 0 0 .065-1.576 15.351 15.351 0 0 0-.647-1.159 1.964 1.964 0 0 0-1.016-.762c-.37-.12-.616-.123-1.326-.012-.278.043-.52.079-.539.078-.017 0-.27-.137-.562-.305l-.53-.305-.091-.23-.22-.559c-.152-.384-.263-.576-.453-.78a2.013 2.013 0 0 0-.99-.577C8.753.006 8.702.004 8.06 0c-.377-.002-.708 0-.736.003Zm.157 1.718a.24.24 0 0 0-.14.12c-.013.025-.132.325-.264.667-.133.342-.261.657-.286.7a.891.891 0 0 1-.266.278c-.12.08-1.618.93-1.752.992a.95.95 0 0 1-.24.068c-.128.018-.168.014-.815-.086a17.08 17.08 0 0 0-.746-.104c-.126 0-.161.042-.426.505-.214.376-.244.437-.244.504 0 .045.014.098.032.129.018.028.221.285.453.572.231.286.443.563.47.616.097.183.098.192.098 1.327 0 1.029-.001 1.045-.038 1.163-.051.162-.077.2-.552.805-.228.29-.422.546-.43.568-.041.108-.034.127.228.586.285.5.297.514.435.514.035 0 .375-.048.756-.106.657-.1.699-.105.811-.085.065.01.159.037.207.058.1.043 1.615.909 1.753 1.002a.894.894 0 0 1 .266.279c.024.042.156.363.292.714.135.35.259.656.274.679.065.1.077.102.611.107.533.006.597-.001.67-.077.03-.033.121-.245.287-.672.133-.344.265-.668.293-.722a.802.802 0 0 1 .244-.287c.11-.076 1.645-.957 1.765-1.013a.947.947 0 0 1 .24-.068c.128-.017.168-.013.815.086.374.058.71.105.746.105.125 0 .161-.043.426-.505.214-.376.244-.437.244-.505a.272.272 0 0 0-.032-.128 20.518 20.518 0 0 0-.453-.572 9.112 9.112 0 0 1-.47-.616c-.097-.184-.098-.193-.098-1.319 0-1.125.001-1.136.097-1.317.027-.052.243-.34.479-.641.236-.3.436-.565.444-.587.041-.108.033-.127-.228-.586-.285-.5-.296-.513-.435-.513-.035 0-.373.047-.75.105-.647.099-.691.103-.81.085a1.083 1.083 0 0 1-.213-.057 53.518 53.518 0 0 1-1.754-1.003.895.895 0 0 1-.266-.279 12.888 12.888 0 0 1-.292-.713c-.135-.35-.259-.656-.274-.68-.066-.1-.076-.102-.617-.105a5.688 5.688 0 0 0-.545.012Z" clip-rule="evenodd"/>
    <path d="M10.139 8A2.139 2.139 0 1 1 5.86 8a2.139 2.139 0 0 1 4.278 0Z"/>
  </g>
  <defs>
    <clipPath id="a">
      <path fill="#fff" d="M0 0h16v16H0z"/>
    </clipPath>
  </defs>
</svg>
